X: 2362
T: Bailiff Arriving In Town, The
R: polka
M: 2/4
K: Gmajor
|:G/A/|BB/A/ GD|EF GA|B>A GD|EA AG/A/|
BB/A/ GD|EF GB|d>e dB|1 AG G:|2 AG G3/2||
|:A/|B>A B/c/d|ed e/e/f|gd B/B/d|gd c/B/A|
[1 B>A Bd|ed ef|gd B/B/A|BG G3/2:|
[2 BB/A/ GD|EF GB|d>e dB|AG G||

